X: 303
T: Rose in the Mountain
B: canberra pickers and fiddlers
B: tunes
M:C|
L:1/8
Q: 1/4=100
K:D
V:1 
[A,3D3]F A2d2|ABAF D2D2|[A,3D3]F A>BAd|f2f2[A2e2]-[A2e2]|
[A,3D3]F A2de|fgfe d2A2|BcdB AFDE|F2C2 D4:|
[A,2D2]eg f2d2|[de][d2f2][de] [d2f2][d2f2]|[A,2D2]eg f2d2|[de][d2f2][de] [d2f2][d2g2]|
[A3e3]e efgef2d2|ABde fgfe d2A2|\
[M:C|]BcdB AFDE|F2C2 D4:|]
% abcbook-tune_id 63da593430307a00d3af06c7
% abcbook-tune_composer_id 
% abcbook-link-0 https://www.youtube.com/watch?v=dKtb4d1MNh8
% abcbook-link-title-0 Foghorn Stringband Performs &quot;Rose In The Mountain&quot; and &quot;Tennessee Girls&quot;
% abcbook-link-1 https://www.youtube.com/watch?v=peq7i2Qz31s
% abcbook-link-end-at-1 344
% abcbook-boost 0
% abcbook-difficulty 0
% abcbook-tags canberra pickers and fiddlers,old time tunes,© free
% abcbook-tablature 
% abcbook-transpose 
% abcbook-tuning ADAE
% abcbook-lastupdated 1729480560546
% abcbook-src-url https://tunebook.net/scrape/tunes.abc
% abcbook-soundfonts 
% abcbook-repeats 1
%%gchordfont "itim-music,Itim" 20

